X: 1
T: Captain O'Kane
C: Turlaugh O'Carolan
M: 6/8
L: 1/16
R: air, waltz
B: after O'Neill's Music of Ireland
K: G
(FD) \
| "Em"(B,2E2F2) (G4 FE) | "D"(FGAGFE) (D2E2F2) \
| "Em" (G2B2G2) (BAGFED) | "Em"(B,2E2)F2 E4 (ED) |
| "Em"(B,2E2F2) (G4 FE) | "D"(FGAGFE) (D2E2F2) \
| "Em"(G2B2)G2 (BAGFED) | "Em"(B,2E2)F2 E4 |]
EF \
| "G"(G2B2)B2 B4 (AG) | "D"(F2A2)A2 A4 (dc) \
| "Em"(B2e2^d2) (e3fg2) | "Em"(B2e2^d2) e4 (ef) |
| "G"(g3fe2) (d3cB2) | "D"(A2F2)d2 (D3EF2) \
| "Em"(G2B2G2) (BAGFED) | "Em"(B,2E2)E2 E4 ||
